src/assets/img/banks-logo/svg/virdi.svg

<svg height="30" viewBox="0 0 81 30" width="81" xmlns="http://www.w3.org/2000/svg"><g fill="none" transform="translate(.572848)"><path d="m37.7227773 8.8284375h2.5612666l4.1961175 12.271875h.0864404l4.2393378-12.271875h2.4522765l-5.3790356 14.65875h-2.7980381z" fill="#565368"/><path d="m52.6974311 23.48675h2.3240957v-10.39675h-2.3240957zm1.0214001-15.79825h.2812954c.6893504 0 1.2481536.55275 1.2481536 1.2355v.2785c0 .68275003-.5588032 1.236-1.2481536 1.236h-.2812954c-.6893504 0-1.2481535-.55324997-1.2481535-1.236v-.2785c0-.68275.5588031-1.2355 1.2481535-1.2355zm3.8436715 5.4015h2.2379901v1.5125h.0646424c.5163815-1.10775 1.4415756-1.76825 2.7758348-1.76825.4302759 0 .9251941.06375 1.4632915.42625l-.6024872 2.045c-.473455-.23425-.8822675-.34075-1.2910802-.34075-1.5708603 0-2.3240957 1.51275-2.3240957 3.3235v5.1985h-2.3240957zm12.1278456 8.798825c1.6569661 0 2.8834038-1.32075 2.8834038-3.6005s-1.2264377-3.6005-2.8834038-3.6005c-1.6355029 0-2.8619406 1.406-2.8619406 3.6855 0 2.28 1.2264377 3.5155 2.8619406 3.5155zm-.4088126-9.05475c1.5062181 0 2.6682659.554 3.3139322 1.811h.0861057c-.1078215-1.3635-.1078215-2.791-.1078215-3.494v-3.2595h2.3240957v15.59525h-2.2162742v-1.55525h-.0861057c-.6456663 1.257-1.9367464 1.81075-3.4861436 1.81075-2.6468026 0-4.691118-1.91725-4.691118-5.369 0-3.45125 2.1733477-5.53925 4.8633294-5.53925zm8.1809988 10.652675h2.3240957v-10.39675h-2.3240957zm1.1617953-15.65925h.0002525c.6890979 0 1.2479011.55325 1.2479011 1.23575v.00025c0 .68225003-.5588032 1.2355-1.2479011 1.2355h-.0002525c-.6890979 0-1.247901-.55324997-1.247901-1.2355v-.00025c0-.6825.5588031-1.23575 1.247901-1.23575z" fill="#565368"/><path d="m20.0680767 14.368075c-1.2797172-1.267-1.2797172-3.32125 0-4.58849997 1.2797172-1.26675003 3.3545862-1.26675003 4.6343034 0 1.2797172 1.26724997 1.2797172 3.32149997 0 4.58849997s-3.3545862 1.267-4.6343034 0zm-4.7794963 9.119-9.72691128-9.6305-.00454517-5.0575 5.10851595.00425 9.7269112 9.6305zm-15.2886814-8.36225c0 10.14875 4.77419358 14.875 15.0243041 14.875 10.2503631 0 15.0243041-4.72625 15.0243041-14.875 0-10.14825-4.773941-14.875-15.0243041-14.875-10.25011052 0-15.0243041 4.72675-15.0243041 14.875z" fill="#ff8269"/></g></svg>

<?xml version="1.0" encoding="UTF-8"?>
<svg width="81px" height="30px" viewBox="0 0 81 30" version="1.1" xmlns="http://www.w3.org/2000/svg" xmlns:xlink="http://www.w3.org/1999/xlink">
    <!-- Generator: Sketch 47.1 (45422) - http://www.bohemiancoding.com/sketch -->
    <title>virdi</title>
    <desc>Created with Sketch.</desc>
    <defs></defs>
    <g id="mobile" stroke="none" stroke-width="1" fill="none" fill-rule="evenodd">
        <g id="frontpage" transform="translate(-213.000000, -549.000000)" fill-rule="nonzero">
            <g id="Group-2" transform="translate(67.000000, 549.000000)">
                <g id="virdi" transform="translate(146.572848, 0.000000)">
                    <polygon id="Shape" fill="#565368" points="37.7227773 8.8284375 40.2840439 8.8284375 44.4801614 21.1003125 44.5666018 21.1003125 48.8059396 8.8284375 51.2582161 8.8284375 45.8791805 23.4871875 43.0811424 23.4871875"></polygon>
                    <path d="M52.6974311,23.48675 L55.0215268,23.48675 L55.0215268,13.09 L52.6974311,13.09 L52.6974311,23.48675 Z M53.7188312,7.6885 L54.0001266,7.6885 C54.689477,7.6885 55.2482802,8.24125 55.2482802,8.924 L55.2482802,9.2025 C55.2482802,9.88525003 54.689477,10.4385 54.0001266,10.4385 L53.7188312,10.4385 C53.0294808,10.4385 52.4706777,9.88525003 52.4706777,9.2025 L52.4706777,8.924 C52.4706777,8.24125 53.0294808,7.6885 53.7188312,7.6885 L53.7188312,7.6885 Z M57.5625027,13.09 L59.8004928,13.09 L59.8004928,14.6025 L59.8651352,14.6025 C60.3815167,13.49475 61.3067108,12.83425 62.64097,12.83425 C63.0712459,12.83425 63.5661641,12.898 64.1042615,13.2605 L63.5017743,15.3055 C63.0283193,15.07125 62.6195068,14.96475 62.2106941,14.96475 C60.6398338,14.96475 59.8865984,16.4775 59.8865984,18.28825 L59.8865984,23.48675 L57.5625027,23.48675 L57.5625027,13.09 Z M69.6903483,21.888825 C71.3473144,21.888825 72.5737521,20.568075 72.5737521,18.288325 C72.5737521,16.008575 71.3473144,14.687825 69.6903483,14.687825 C68.0548454,14.687825 66.8284077,16.093825 66.8284077,18.373325 C66.8284077,20.653325 68.0548454,21.888825 69.6903483,21.888825 L69.6903483,21.888825 Z M69.2815357,12.834075 C70.7877538,12.834075 71.9498016,13.388075 72.5954679,14.645075 L72.6815736,14.645075 C72.5737521,13.281575 72.5737521,11.854075 72.5737521,11.151075 L72.5737521,7.891575 L74.8978478,7.891575 L74.8978478,23.486825 L72.6815736,23.486825 L72.6815736,21.931575 L72.5954679,21.931575 C71.9498016,23.188575 70.6587215,23.742325 69.1093243,23.742325 C66.4625217,23.742325 64.4182063,21.825075 64.4182063,18.373325 C64.4182063,14.922075 66.591554,12.834075 69.2815357,12.834075 L69.2815357,12.834075 Z M77.4625345,23.48675 L79.7866302,23.48675 L79.7866302,13.09 L77.4625345,13.09 L77.4625345,23.48675 Z M78.6243298,7.8275 L78.6245823,7.8275 C79.3136802,7.8275 79.8724834,8.38075 79.8724834,9.06325 L79.8724834,9.0635 C79.8724834,9.74575003 79.3136802,10.299 78.6245823,10.299 L78.6243298,10.299 C77.9352319,10.299 77.3764288,9.74575003 77.3764288,9.0635 L77.3764288,9.06325 C77.3764288,8.38075 77.9352319,7.8275 78.6243298,7.8275 L78.6243298,7.8275 Z" id="Shape" fill="#565368"></path>
                    <path d="M20.0680767,14.368075 C18.7883595,13.101075 18.7883595,11.046825 20.0680767,9.77957503 C21.3477939,8.512825 23.4226629,8.512825 24.7023801,9.77957503 C25.9820973,11.046825 25.9820973,13.101075 24.7023801,14.368075 C23.4226629,15.635075 21.3477939,15.635075 20.0680767,14.368075 Z M15.2885804,23.487075 L5.56166912,13.856575 L5.55712395,8.799075 L10.6656399,8.803325 L20.3925511,18.433825 L15.2885804,23.487075 Z M-0.000101003725,15.124825 C-0.000101003725,25.273575 4.77409258,29.999825 15.0242031,29.999825 C25.2745662,29.999825 30.0485072,25.273575 30.0485072,15.124825 C30.0485072,4.976575 25.2745662,0.249825 15.0242031,0.249825 C4.77409258,0.249825 -0.000101003725,4.976575 -0.000101003725,15.124825 Z" id="Shape" fill="#FF8269"></path>
                </g>
            </g>
        </g>
    </g>
</svg>
